icons/nerve_fill.svg

<svg width="48" height="48" viewBox="0 0 48 48" fill="none" xmlns="http://www.w3.org/2000/svg">
<path fill-rule="evenodd" clip-rule="evenodd" d="M25.4376 8.12324C25.6644 8.6268 25.4401 9.21889 24.9365 9.44571C23.2008 10.2275 21.9943 11.9686 21.9875 13.9902L21.9875 14.0073L21.9875 14.0245C21.9967 16.7781 24.2317 19.0074 26.9874 19.0074C29.5665 19.0074 31.6906 17.0539 31.9588 14.5465C32.0175 13.9973 32.5103 13.5998 33.0595 13.6585C33.6086 13.7173 34.0062 14.2101 33.9474 14.7592C33.7892 16.2386 33.1705 17.5801 32.2374 18.6375C33.7386 18.9749 35.0575 19.7946 36.0215 20.9234C36.3801 21.3434 36.3304 21.9746 35.9104 22.3333C35.4904 22.6919 34.8592 22.6422 34.5006 22.2222C33.582 21.1465 32.2191 20.4672 30.6964 20.4672C27.935 20.4672 25.6964 22.7057 25.6964 25.4672C25.6964 26.5014 26.0094 27.4597 26.5457 28.256L26.5527 28.2651C26.6183 28.351 26.6679 28.4442 26.7019 28.541C26.7271 28.6109 26.7441 28.6826 26.7531 28.7549C27.0857 28.7973 27.4045 28.9577 27.6413 29.2311C27.8694 29.4946 28.0758 29.7642 28.263 30.0377C28.6256 30.5672 28.5785 31.2561 28.1918 31.729C28.7896 31.7163 29.3529 32.0872 29.5573 32.683C29.7676 33.296 29.9285 33.8952 30.0675 34.4387C30.2044 34.9739 30.0156 35.5159 29.6254 35.8552C30.0978 35.9225 30.5247 36.2277 30.726 36.6986C30.9114 37.1323 31.0877 37.3427 31.2518 37.4586C31.5155 37.6448 31.696 37.905 31.7851 38.1911C32.0084 37.8969 32.3461 37.6901 32.7418 37.6426C32.9557 37.6169 33.1945 37.5766 33.461 37.5186C33.8669 37.4302 34.2699 37.526 34.5831 37.75C34.6887 37.5988 34.8373 37.4751 35.0203 37.3994C35.112 37.3614 35.2033 37.3233 35.2942 37.2853C35.8112 37.031 36.1899 36.6107 36.3669 36.0756C36.566 35.4742 36.5486 34.6047 35.9748 33.4919C35.7217 33.001 35.9144 32.3979 36.4053 32.1448C36.8961 31.8917 37.4993 32.0844 37.7524 32.5753C38.1597 33.3653 38.3932 34.1406 38.4613 34.8769C39.0705 34.1531 39.7137 33.1747 40.2394 31.8849C40.4478 31.3734 41.0314 31.1278 41.5429 31.3362C42.0543 31.5447 42.2999 32.1283 42.0915 32.6397C41.4657 34.1753 40.6884 35.3492 39.9392 36.2265C40.4264 36.2843 40.9386 36.4044 41.4933 36.5968C42.015 36.7779 42.2912 37.3476 42.1102 37.8694C41.9291 38.3912 41.3594 38.6674 40.8376 38.4863C39.8433 38.1413 39.1357 38.1279 38.4468 38.2706C37.805 38.4036 37.1737 38.6675 36.2927 39.0359L36.1058 39.114C36.0101 39.1591 35.9126 39.2007 35.8134 39.2389C35.7934 39.2466 35.7733 39.2536 35.7531 39.26C35.5429 39.3388 35.3218 39.3422 35.1204 39.2829C34.9827 39.768 34.5889 40.1634 34.0617 40.2782C33.7196 40.3527 33.3921 40.4091 33.0784 40.4468C32.3913 40.5292 31.7604 40.1037 31.5619 39.4658C31.104 40.0698 30.2462 40.2061 29.6224 39.7655C28.8752 39.2377 28.429 38.5106 28.129 37.8087C27.8818 37.2302 28.0505 36.5785 28.5013 36.1872C27.952 36.1091 27.4773 35.7094 27.3313 35.1385C27.197 34.6136 27.0585 34.1026 26.8859 33.5995C26.7215 33.1202 26.8297 32.6132 27.1281 32.2475C26.6679 32.2569 26.2121 32.0414 25.9327 31.6333C25.8031 31.4441 25.6617 31.2594 25.5063 31.08C25.1723 30.6944 25.0842 30.1794 25.2282 29.7264C25.1172 29.6567 25.0181 29.5638 24.9387 29.4492L24.9271 29.4324C24.0103 28.2613 22.5866 27.5116 20.9874 27.5116C19.3879 27.5116 17.9638 28.2627 17.0485 29.4315C16.9805 29.5303 16.9099 29.6274 16.837 29.7225C16.3005 30.5193 15.9874 31.4789 15.9874 32.5116C15.9874 33.4647 16.2531 34.3527 16.714 35.109C17.0014 35.5806 16.852 36.1959 16.3804 36.4833C15.9088 36.7707 15.2935 36.6213 15.0061 36.1497C14.3596 35.0888 13.9874 33.8421 13.9874 32.5116C13.9874 32.31 13.996 32.1104 14.0127 31.9131C13.1727 32.2698 12.2486 32.4672 11.2785 32.4672C10.793 32.4672 10.318 32.4176 9.85863 32.3229C9.31772 32.2114 8.96964 31.6824 9.08116 31.1415C9.19269 30.6006 9.72159 30.2526 10.2625 30.3641C10.5897 30.4315 10.9294 30.4672 11.2785 30.4672C12.878 30.4672 14.3021 29.7161 15.2174 28.5473C15.2855 28.4484 15.356 28.3513 15.429 28.2561C15.9654 27.4594 16.2785 26.4999 16.2785 25.4672C16.2785 22.7057 14.0399 20.4672 11.2785 20.4672C9.81032 20.4672 8.49106 21.0987 7.57494 22.108C7.20375 22.5169 6.57133 22.5475 6.16238 22.1763C5.75344 21.8051 5.72283 21.1727 6.09402 20.7638C7.0438 19.7174 8.30805 18.9588 9.73754 18.6375C8.83287 17.6123 8.22371 16.32 8.0432 14.8939C7.97385 14.346 8.3618 13.8456 8.90972 13.7762C9.45763 13.7069 9.95802 14.0948 10.0274 14.6428C10.3389 17.1037 12.4416 19.0073 14.9875 19.0073C17.7431 19.0073 19.9781 16.7781 19.9875 14.0247L19.9874 14.0074L19.9875 13.99C19.9807 12.0017 18.8134 10.2847 17.1232 9.48483C16.6239 9.24859 16.4108 8.65239 16.647 8.15318C16.8832 7.65398 17.4794 7.4408 17.9787 7.67704C19.2292 8.26882 20.277 9.22097 20.9875 10.3999C21.7203 9.18387 22.8121 8.20911 24.1152 7.62216C24.6187 7.39534 25.2108 7.61969 25.4376 8.12324ZM20.9875 24.0102C21.8155 24.0102 22.4868 23.3389 22.4868 22.5109C22.4868 21.6828 21.8155 21.0116 20.9875 21.0116C20.1595 21.0116 19.4882 21.6828 19.4882 22.5109C19.4882 23.3389 20.1595 24.0102 20.9875 24.0102Z" fill="black"/>
</svg>

<svg
  xmlns="http://www.w3.org/2000/svg"
  width="24"
  height="24"
  viewBox="0 0 24 24"
  fill="none"
  stroke="currentColor"
  stroke-width="2"
  stroke-linecap="round"
  stroke-linejoin="round"
>
  <path
    fill-rule="evenodd"
    d="M25.438 8.123a1 1 0 0 1-.502 1.323 5 5 0 0 0-2.948 4.544v.035a5 5 0 0 0 9.97.521 1 1 0 1 1 1.99.213 6.97 6.97 0 0 1-1.71 3.878 7 7 0 0 1 3.784 2.286 1 1 0 0 1-1.521 1.3 5 5 0 0 0-7.955 6.034l.007.008a1 1 0 0 1 .2.49c.333.042.651.203.888.476q.342.396.622.807c.363.53.315 1.218-.071 1.691a1.41 1.41 0 0 1 1.365.954c.21.613.372 1.212.51 1.756a1.41 1.41 0 0 1-.442 1.416c.473.068.9.373 1.101.844.185.433.362.644.526.76.264.186.444.446.533.732.223-.294.561-.5.957-.548q.32-.038.719-.124c.406-.089.809.007 1.122.231a1 1 0 0 1 .437-.35l.274-.115a2.06 2.06 0 0 0 1.073-1.21c.199-.6.182-1.47-.392-2.583a1 1 0 1 1 1.777-.917c.408.79.641 1.566.71 2.302.608-.724 1.252-1.702 1.777-2.992a1 1 0 1 1 1.853.755c-.626 1.535-1.404 2.71-2.153 3.587.487.057 1 .177 1.554.37a1 1 0 0 1-.655 1.89c-.995-.346-1.702-.36-2.391-.216-.642.133-1.273.396-2.154.765l-.187.078a4 4 0 0 1-.353.146 1 1 0 0 1-.633.023c-.137.485-.531.88-1.058.995q-.513.112-.984.169a1.41 1.41 0 0 1-1.516-.981 1.41 1.41 0 0 1-1.94.3c-.747-.528-1.193-1.255-1.493-1.957a1.41 1.41 0 0 1 .372-1.622 1.41 1.41 0 0 1-1.17-1.048 20 20 0 0 0-.445-1.54 1.41 1.41 0 0 1 .242-1.351c-.46.009-.916-.207-1.195-.615a6 6 0 0 0-.427-.553 1.41 1.41 0 0 1-.278-1.354 1 1 0 0 1-.29-.277l-.01-.017a4.99 4.99 0 0 0-3.94-1.92c-1.6 0-3.024.75-3.94 1.92a7 7 0 0 1-.211.29 4.98 4.98 0 0 0-.85 2.79c0 .953.266 1.84.727 2.597a1 1 0 0 1-1.708 1.04 6.97 6.97 0 0 1-.993-4.236 7.027 7.027 0 0 1-4.154.41 1 1 0 0 1 .403-1.959q.492.102 1.016.103c1.6 0 3.024-.75 3.94-1.92q.102-.149.211-.29a5 5 0 0 0-7.854-6.148 1 1 0 0 1-1.481-1.345 7 7 0 0 1 3.644-2.126 6.98 6.98 0 0 1-1.695-3.744 1 1 0 0 1 1.984-.251 5.001 5.001 0 0 0 9.96-.618v-.035a5 5 0 0 0-2.864-4.505 1 1 0 1 1 .856-1.808 7.03 7.03 0 0 1 3.009 2.723 7.03 7.03 0 0 1 3.127-2.778 1 1 0 0 1 1.323.501m-4.45 15.887a1.5 1.5 0 1 0 0-2.999 1.5 1.5 0 0 0 0 3"
    clip-rule="evenodd"
  />
</svg>
